svg/recycling.svg

<svg xmlns="http://www.w3.org/2000/svg" viewBox="0 0 32 32" enable-background="new 0 0 32 32"><path d="M 16 3.96875 C 14.945513 3.96875 13.882205 4.4853204 13.25 5.46875 L 10.4375 10.09375 L 12.15625 11.125 L 14.96875 6.53125 C 15.509409 5.7252176 16.532761 5.7072116 17.0625 6.53125 L 20.1875 11.53125 L 18.6875 12.40625 L 23.3125 15 L 23.3125 9.6875 L 21.875 10.53125 L 18.75 5.46875 C 18.117795 4.4853204 17.054487 3.96875 16 3.96875 z M 10.40625 12.09375 L 5.90625 14.6875 L 7.15625 15.4375 L 4.59375 19.65625 L 4.5625 19.625 C 4.550258 19.64281 4.574329 19.66958 4.5625 19.6875 C 3.0914069 21.916129 4.7884691 25 7.5 25 L 13 25 L 13 23 L 7.5 23 C 6.2333333 23 5.5535396 21.748829 6.21875 20.78125 L 6.25 20.75 L 6.25 20.71875 L 8.875 16.46875 L 10.40625 17.40625 L 10.40625 12.09375 z M 25.0625 15.65625 L 23.34375 16.71875 L 25.84375 20.71875 C 26.484013 21.807198 25.756908 23 24.59375 23 L 19 23 L 19 21 L 14.09375 24 L 19 27 L 19 25 L 24.59375 25 C 27.230592 25 28.922237 21.999052 27.5625 19.6875 L 27.5625 19.65625 L 25.0625 15.65625 z"/></svg>

<svg xmlns="http://www.w3.org/2000/svg" viewBox="0 0 32 32"><path d="M16 3.97c-1.054 0-2.118.515-2.75 1.5l-2.813 4.624 1.72 1.03 2.812-4.593c.54-.805 1.563-.823 2.092 0l3.125 5-1.5.876L23.313 15V9.687l-1.437.844-3.125-5.06c-.632-.985-1.696-1.5-2.75-1.5zm-5.594 8.124l-4.5 2.594 1.25.75-2.562 4.218-.032-.03c-.012.017.012.044 0 .06-1.47 2.23.226 5.314 2.938 5.314H13v-2H7.5c-1.267 0-1.946-1.25-1.28-2.22l.03-.03v-.03l2.625-4.25 1.53.936v-5.312zm14.656 3.562l-1.718 1.063 2.5 4c.64 1.087-.087 2.28-1.25 2.28H19v-2l-4.906 3L19 27v-2h5.594c2.637 0 4.328-3 2.968-5.313v-.03l-2.5-4z"/></svg>
